Newaita-dark/apps/48/konquest.svg

<svg height="48pt" viewBox="0 0 48 48" width="48pt" xmlns="http://www.w3.org/2000/svg" xmlns:xlink="http://www.w3.org/1999/xlink"><linearGradient id="a"><stop offset="0" stop-opacity=".313725"/><stop offset=".222222" stop-opacity=".27451"/><stop offset="1" stop-opacity="0"/></linearGradient><radialGradient id="b" cx="450.908936" cy="189.579361" gradientTransform="matrix(.00000026 -.117199 -.210958 -.00000015 66.784728 95.392994)" gradientUnits="userSpaceOnUse" r="21.166656" xlink:href="#a"/><radialGradient id="c" cx="450.908936" cy="189.579361" gradientTransform="matrix(-.00000026 .117199 .210958 .00000015 -19.155178 -11.291223)" gradientUnits="userSpaceOnUse" r="21.166656" xlink:href="#a"/><radialGradient id="d" cx="450.908936" cy="189.579361" gradientTransform="matrix(-.00000026 -.117199 .210958 -.00000015 -19.155178 95.392994)" gradientUnits="userSpaceOnUse" r="21.166656" xlink:href="#a"/><radialGradient id="e" cx="450.908936" cy="189.579361" gradientTransform="matrix(.00000026 .117199 -.210958 .00000015 66.784725 -11.291224)" gradientUnits="userSpaceOnUse" r="21.166656" xlink:href="#a"/><linearGradient id="f" gradientTransform="matrix(.0200401 0 0 .093759 18.698079 20.158175)" gradientUnits="userSpaceOnUse" x1="255.323059" x2="255.323044" y1="233.5" y2="254.666656"><stop offset="0" stop-opacity=".27451"/><stop offset="1" stop-opacity="0"/></linearGradient><linearGradient id="g" gradientUnits="userSpaceOnUse" x1="23.814785" x2="23.814785" y1="42.0509015" y2="4.34415649995"><stop offset="0" stop-color="#ec407a"/><stop offset="1" stop-color="#f06292"/></linearGradient><path d="m27.289062 42.050781h3.96875v-1.984375h-3.96875zm0 0" fill="url(#b)"/><path d="m20.339844 42.050781h-3.96875v1.984375h3.96875zm0 0" fill="url(#c)"/><path d="m20.339844 42.050781h-3.96875v-1.984375h3.96875zm0 0" fill="url(#d)"/><path d="m27.289062 42.050781h3.96875v1.984375h-3.96875zm0 0" fill="url(#e)"/><path d="m20.339844 41.554688h6.949218v2.480468h-6.949218zm0 0" fill="url(#f)"/><path d="m23.816406 4.34375c10.410156 0 18.851563 8.441406 18.851563 18.855469 0 10.410156-8.441407 18.851562-18.851563 18.851562-10.414062 0-18.855468-8.441406-18.855468-18.851562 0-10.414063 8.441406-18.855469 18.855468-18.855469zm0 0" fill="url(#g)"/><g fill="#fff"><path d="m34.597656 7.53125c2.363282 1.582031 4.34375 3.691406 5.78125 6.15625-1.222656.664062-2.402344 1.164062-3.398437.578125-1.261719-.6875-4.914063 2.222656-5.953125 2.976563-3.96875 1.984374-5.820313.164062-9.921875-1.984376-3.152344-1.375-8.875-.878906-13.589844-1.09375.832031-1.523437 1.863281-2.921874 3.066406-4.152343 4.082031-1.375 8.171875-2.851563 9.875-.585938 3.625 4.839844 5.972657.542969 9.578125 1.863281 3.144532.609376 3.804688-1.640624 4.5625-3.757812zm0 0" fill-opacity=".313725"/><path d="m6.613281 30.949219c1.984375.917969 3.433594 1.320312 5.292969 1.179687 2.15625.546875.203125 2.984375 1.984375 2.976563 2.199219 0 9.925781 4.960937 14.886719 1.984375 2.085937-.421875 5.78125-1.027344 8.839844-1.023438-3.4375 3.6875-8.34375 5.984375-13.800782 5.984375-2.449218 0-4.785156-.460937-6.929687-1.304687-4.613281-2.605469-8.683594-6.253906-10.273438-9.796875zm0 0" fill-opacity=".313725"/><path d="m9.957031 17.128906c-.308593 0-.648437.035156-1.027343.113282-.660157.386718-.246094 1.488281-.992188 1.984374-.3125.519532-1.34375-.324218-2.28125-1.140624-.453125 1.625-.695312 3.339843-.695312 5.113281 0 .71875.039062 1.429687.117187 2.128906 2.011719.78125 4.1875 2.8125 5.835937 1.839844 1.265626-.691407 4.917969 2.21875 5.953126 2.976562 3.972656 1.984375 5.820312.160157 9.925781-1.984375 3.59375-1.570312 10.535156-.707031 15.511719-1.238281.238281-1.203125.363281-2.449219.363281-3.722656 0-1.394531-.148438-2.75-.433594-4.054688-4.894531-.871093-8.21875 1.042969-10.480469 4.054688-3.625 4.839843-10.285156-.332031-13.894531.992187-5.660156 1.09375-3.265625-7.078125-7.902344-7.0625zm0 0" fill-opacity=".313725"/><path d="m23.816406 4.34375c-10.445312 0-18.855468 8.410156-18.855468 18.855469 0 .121093.003906.242187.003906.363281.195312-10.277344 8.527344-18.488281 18.851562-18.488281 10.320313 0 18.65625 8.210937 18.847656 18.488281.003907-.121094.003907-.242188.003907-.363281 0-10.445313-8.410157-18.855469-18.851563-18.855469zm0 0" fill-opacity=".392157"/></g><path d="m23.816406 42.050781c-10.445312 0-18.855468-8.410156-18.855468-18.851562 0-.125.003906-.246094.003906-.367188.195312 10.277344 8.527344 18.488281 18.851562 18.488281 10.320313 0 18.65625-8.210937 18.847656-18.488281.003907.121094.003907.242188.003907.367188 0 10.441406-8.410157 18.851562-18.851563 18.851562zm0 0" fill-opacity=".235294"/><path d="m23.816406 4.203125c-10.523437 0-18.996094 8.472656-18.996094 18.996094 0 10.519531 8.472657 18.992187 18.996094 18.992187 10.519532 0 18.992188-8.472656 18.992188-18.992187 0-10.523438-8.472656-18.996094-18.992188-18.996094zm0 .28125c10.367188 0 18.710938 8.34375 18.710938 18.714844 0 10.367187-8.34375 18.710937-18.710938 18.710937-10.371094 0-18.714844-8.34375-18.714844-18.710937 0-10.371094 8.34375-18.714844 18.714844-18.714844zm0 0" fill="#212121"/></svg>

<?xml version="1.0" encoding="UTF-8"?>
<svg xmlns="http://www.w3.org/2000/svg" xmlns:xlink="http://www.w3.org/1999/xlink" width="48pt" height="48pt" viewBox="0 0 48 48" version="1.1">
<defs>
<radialGradient id="radial0" gradientUnits="userSpaceOnUse" cx="450.908936" cy="189.579361" fx="450.908936" fy="189.579361" r="21.166656" gradientTransform="matrix(0.000000261256,-0.117199,-0.210958,-0.000000152308,66.784728,95.392994)">
<stop offset="0" style="stop-color:rgb(0%,0%,0%);stop-opacity:0.313725;"/>
<stop offset="0.222222" style="stop-color:rgb(0%,0%,0%);stop-opacity:0.27451;"/>
<stop offset="1" style="stop-color:rgb(0%,0%,0%);stop-opacity:0;"/>
</radialGradient>
<radialGradient id="radial1" gradientUnits="userSpaceOnUse" cx="450.908936" cy="189.579361" fx="450.908936" fy="189.579361" r="21.166656" gradientTransform="matrix(-0.000000261256,0.117199,0.210958,0.000000152308,-19.155178,-11.291223)">
<stop offset="0" style="stop-color:rgb(0%,0%,0%);stop-opacity:0.313725;"/>
<stop offset="0.222222" style="stop-color:rgb(0%,0%,0%);stop-opacity:0.27451;"/>
<stop offset="1" style="stop-color:rgb(0%,0%,0%);stop-opacity:0;"/>
</radialGradient>
<radialGradient id="radial2" gradientUnits="userSpaceOnUse" cx="450.908936" cy="189.579361" fx="450.908936" fy="189.579361" r="21.166656" gradientTransform="matrix(-0.000000261256,-0.117199,0.210958,-0.000000152308,-19.155178,95.392994)">
<stop offset="0" style="stop-color:rgb(0%,0%,0%);stop-opacity:0.313725;"/>
<stop offset="0.222222" style="stop-color:rgb(0%,0%,0%);stop-opacity:0.27451;"/>
<stop offset="1" style="stop-color:rgb(0%,0%,0%);stop-opacity:0;"/>
</radialGradient>
<radialGradient id="radial3" gradientUnits="userSpaceOnUse" cx="450.908936" cy="189.579361" fx="450.908936" fy="189.579361" r="21.166656" gradientTransform="matrix(0.000000261256,0.117199,-0.210958,0.000000152308,66.784725,-11.291224)">
<stop offset="0" style="stop-color:rgb(0%,0%,0%);stop-opacity:0.313725;"/>
<stop offset="0.222222" style="stop-color:rgb(0%,0%,0%);stop-opacity:0.27451;"/>
<stop offset="1" style="stop-color:rgb(0%,0%,0%);stop-opacity:0;"/>
</radialGradient>
<linearGradient id="linear0" gradientUnits="userSpaceOnUse" x1="255.323059" y1="233.5" x2="255.323044" y2="254.666656" gradientTransform="matrix(0.0200401,0,0,0.093759,18.698079,20.158175)">
<stop offset="0" style="stop-color:rgb(0%,0%,0%);stop-opacity:0.27451;"/>
<stop offset="1" style="stop-color:rgb(0%,0%,0%);stop-opacity:0;"/>
</linearGradient>
<linearGradient id="linear1" gradientUnits="userSpaceOnUse" x1="254" y1="233.5" x2="254" y2="-168.666672" gradientTransform="matrix(0.093759,0,0,0.093759,-0.000000889869,20.158175)">
<stop offset="0" style="stop-color:rgb(92.54902%,25.098039%,47.843137%);stop-opacity:1;"/>
<stop offset="1" style="stop-color:rgb(94.117647%,38.431373%,57.254902%);stop-opacity:1;"/>
</linearGradient>
</defs>
<g id="surface1">
<path style=" stroke:none;fill-rule:nonzero;fill:url(#radial0);" d="M 27.289062 42.050781 L 31.257812 42.050781 L 31.257812 40.066406 L 27.289062 40.066406 Z M 27.289062 42.050781 "/>
<path style=" stroke:none;fill-rule:nonzero;fill:url(#radial1);" d="M 20.339844 42.050781 L 16.371094 42.050781 L 16.371094 44.035156 L 20.339844 44.035156 Z M 20.339844 42.050781 "/>
<path style=" stroke:none;fill-rule:nonzero;fill:url(#radial2);" d="M 20.339844 42.050781 L 16.371094 42.050781 L 16.371094 40.066406 L 20.339844 40.066406 Z M 20.339844 42.050781 "/>
<path style=" stroke:none;fill-rule:nonzero;fill:url(#radial3);" d="M 27.289062 42.050781 L 31.257812 42.050781 L 31.257812 44.035156 L 27.289062 44.035156 Z M 27.289062 42.050781 "/>
<path style=" stroke:none;fill-rule:nonzero;fill:url(#linear0);" d="M 20.339844 41.554688 L 27.289062 41.554688 L 27.289062 44.035156 L 20.339844 44.035156 Z M 20.339844 41.554688 "/>
<path style=" stroke:none;fill-rule:nonzero;fill:url(#linear1);" d="M 23.816406 4.34375 C 34.226562 4.34375 42.667969 12.785156 42.667969 23.199219 C 42.667969 33.609375 34.226562 42.050781 23.816406 42.050781 C 13.402344 42.050781 4.960938 33.609375 4.960938 23.199219 C 4.960938 12.785156 13.402344 4.34375 23.816406 4.34375 Z M 23.816406 4.34375 "/>
<path style=" stroke:none;fill-rule:nonzero;fill:rgb(100%,100%,100%);fill-opacity:0.313725;" d="M 34.597656 7.53125 C 36.960938 9.113281 38.941406 11.222656 40.378906 13.6875 C 39.15625 14.351562 37.976562 14.851562 36.980469 14.265625 C 35.71875 13.578125 32.066406 16.488281 31.027344 17.242188 C 27.058594 19.226562 25.207031 17.40625 21.105469 15.257812 C 17.953125 13.882812 12.230469 14.378906 7.515625 14.164062 C 8.347656 12.640625 9.378906 11.242188 10.582031 10.011719 C 14.664062 8.636719 18.753906 7.160156 20.457031 9.425781 C 24.082031 14.265625 26.429688 9.96875 30.035156 11.289062 C 33.179688 11.898438 33.839844 9.648438 34.597656 7.53125 Z M 34.597656 7.53125 "/>
<path style=" stroke:none;fill-rule:nonzero;fill:rgb(100%,100%,100%);fill-opacity:0.313725;" d="M 6.613281 30.949219 C 8.597656 31.867188 10.046875 32.269531 11.90625 32.128906 C 14.0625 32.675781 12.109375 35.113281 13.890625 35.105469 C 16.089844 35.105469 23.816406 40.066406 28.777344 37.089844 C 30.863281 36.667969 34.558594 36.0625 37.617188 36.066406 C 34.179688 39.753906 29.273438 42.050781 23.816406 42.050781 C 21.367188 42.050781 19.03125 41.589844 16.886719 40.746094 C 12.273438 38.140625 8.203125 34.492188 6.613281 30.949219 Z M 6.613281 30.949219 "/>
<path style=" stroke:none;fill-rule:nonzero;fill:rgb(100%,100%,100%);fill-opacity:0.313725;" d="M 9.957031 17.128906 C 9.648438 17.128906 9.308594 17.164062 8.929688 17.242188 C 8.269531 17.628906 8.683594 18.730469 7.9375 19.226562 C 7.625 19.746094 6.59375 18.902344 5.65625 18.085938 C 5.203125 19.710938 4.960938 21.425781 4.960938 23.199219 C 4.960938 23.917969 5 24.628906 5.078125 25.328125 C 7.089844 26.109375 9.265625 28.140625 10.914062 27.167969 C 12.179688 26.476562 15.832031 29.386719 16.867188 30.144531 C 20.839844 32.128906 22.6875 30.304688 26.792969 28.160156 C 30.386719 26.589844 37.328125 27.453125 42.304688 26.921875 C 42.542969 25.71875 42.667969 24.472656 42.667969 23.199219 C 42.667969 21.804688 42.519531 20.449219 42.234375 19.144531 C 37.339844 18.273438 34.015625 20.1875 31.753906 23.199219 C 28.128906 28.039062 21.46875 22.867188 17.859375 24.191406 C 12.199219 25.285156 14.59375 17.113281 9.957031 17.128906 Z M 9.957031 17.128906 "/>
<path style=" stroke:none;fill-rule:nonzero;fill:rgb(100%,100%,100%);fill-opacity:0.392157;" d="M 23.816406 4.34375 C 13.371094 4.34375 4.960938 12.753906 4.960938 23.199219 C 4.960938 23.320312 4.964844 23.441406 4.964844 23.5625 C 5.160156 13.285156 13.492188 5.074219 23.816406 5.074219 C 34.136719 5.074219 42.472656 13.285156 42.664062 23.5625 C 42.667969 23.441406 42.667969 23.320312 42.667969 23.199219 C 42.667969 12.753906 34.257812 4.34375 23.816406 4.34375 Z M 23.816406 4.34375 "/>
<path style=" stroke:none;fill-rule:nonzero;fill:rgb(0%,0%,0%);fill-opacity:0.235294;" d="M 23.816406 42.050781 C 13.371094 42.050781 4.960938 33.640625 4.960938 23.199219 C 4.960938 23.074219 4.964844 22.953125 4.964844 22.832031 C 5.160156 33.109375 13.492188 41.320312 23.816406 41.320312 C 34.136719 41.320312 42.472656 33.109375 42.664062 22.832031 C 42.667969 22.953125 42.667969 23.074219 42.667969 23.199219 C 42.667969 33.640625 34.257812 42.050781 23.816406 42.050781 Z M 23.816406 42.050781 "/>
<path style=" stroke:none;fill-rule:nonzero;fill:rgb(12.941177%,12.941177%,12.941177%);fill-opacity:1;" d="M 23.816406 4.203125 C 13.292969 4.203125 4.820312 12.675781 4.820312 23.199219 C 4.820312 33.71875 13.292969 42.191406 23.816406 42.191406 C 34.335938 42.191406 42.808594 33.71875 42.808594 23.199219 C 42.808594 12.675781 34.335938 4.203125 23.816406 4.203125 Z M 23.816406 4.484375 C 34.183594 4.484375 42.527344 12.828125 42.527344 23.199219 C 42.527344 33.566406 34.183594 41.910156 23.816406 41.910156 C 13.445312 41.910156 5.101562 33.566406 5.101562 23.199219 C 5.101562 12.828125 13.445312 4.484375 23.816406 4.484375 Z M 23.816406 4.484375 "/>
</g>
</svg>
